X: 151
T:Planxty Mary O'Neill
C:O'Carolan
B:O'Neill's 662
Z:Slightly modified version by alf.
M:6/8
L:1/8
K:D
A | dAG F2D | EGE F2D | dAG F2D | E=CE GFE |
| dAG F2D | EGE F2D | GAB =cBA | GE=C EGE :|
|: f2d dfd | afd ege | f2d dfd | gec efg |
|1 f2d dfd | afd ege  | fed =cBA | GE=C EFG ||
|2 fed edc | d=cB cBA | GAB =cBA | GE=C EGE :|
|: FED d2D | FED d2D | FED d2D | GEC EGE |
| FED d2A | e2A f2A | g2A f2D | GE=C EFG :|
